X:1
T:Ad te perenne gaudium
T:Orlando di Lasso
T:Source : Magnum opus musicum---München---N.Henricus---1604. Editor : André Vierendeels (13/04/15).
T:Notes  Original clefs : C4, C4, F3 Original note values have been halved Square bracket indicates ligature Music collected by Ferdinando and Rodolpho di Lasso   
T:Ad te perenne gaudium
C:Orlando di Lasso
%%score [ 1 2 3 ]
L:1/8
Q:1/4=68
M:2/2
K:F
V:1 treble-8 nm="Tenor 1" snm="T 1"
V:2 treble-8 nm="Tenor 2" snm="T 2"
V:3 bass nm="Bass" snm="B"
V:1
 c4 c2 c2 | d2 A2 A2 d2 | c4 F4 | G2 A2 F2 A2- | AB c2 d3 d | c4 z2 A2 | c2 A2 d3 d | d2 cB A2 A2 | %8
w: Ad te per-|en- ne gau- di-|um re-|rum- que su- mus|_ _ _ ar- ti-|fex, cur-|sum per an- nos|ten- * * * di-|
 Bc dB c2 c2 | A3 A AA B2- | BA AG/F/ G2 G2 | !fermata!A8 |] %12
w: mus _ _ _ _ lae|ti tro- phe- is ho-|* * * * * * sti-|um.|
V:2
 A4 A2 F2 | B2 c2 F3 G | A4 z2 A2 | c3 c c4 | F2 A4 G2 | A4 c4 | F2 F2 B2 G2 | B2 AG ^F2 F2 | %8
w: Ad te per-|en- ne gau- di-|um re-|rum- que su-|mus ar- ti-|fex, cur-|sum per an- nos|ten- * * * di-|
 GA BG A2 A2 | cc F2 D2 G2- | GF F4 E2 | !fermata!F8 |] %12
w: mus _ _ _ _ lae-|ti tro- phe- is ho-|* * * sti-|um.|
V:3
 F,4 F,2 A,2 | G,2 F,2 D,2 B,,2 | F,4 z2 D,2 | E,2 F,2 A,G, F,E, | D,2 C,2 B,,3 B,, | %5
w: Ad te per-|en- ne gau- di-|um re-|rum- que su- * * *|mus- mus ar- ti-|
 A,,2 F,2 F,3 G, | A,2 C2 G,2 B,2 | B,,2 C,2 D,4 | z2 G,2 F,4- | F,2 D,2 F,2 _E,2 | D,4 C,3 C, | %11
w: fex, cur- sum _|_ per an- nos|ten- di- mus|lae- ti|_ tro- phe- is|ho- * sti|
 !fermata!F,8 |] %12
w: um.|

